src/icons/github.svg

<svg xmlns="http://www.w3.org/2000/svg" fill="none" viewBox="0 0 64 64"><defs/><path fill="#333" d="M32 .7915c-17.68 0-32 14.328-32 32.0001 0 14.1413 9.168 26.1333 21.88 30.36 1.6.3013 2.1867-.688 2.1867-1.5387 0-.76-.0267-2.7733-.04-5.44-8.9014 1.9307-10.7787-4.2933-10.7787-4.2933-1.456-3.6934-3.56-4.68-3.56-4.68-2.8987-1.984.224-1.944.224-1.944 3.2133.224 4.9013 3.296 4.9013 3.296 2.8534 4.8933 7.4907 3.48 9.32 2.6613.288-2.0693 1.112-3.48 2.0267-4.28-7.1067-.8-14.576-3.552-14.576-15.8133 0-3.4934 1.24-6.3468 3.2933-8.5868-.36-.808-1.44-4.0613.28-8.4693 0 0 2.68-.8586 8.8 3.28 2.56-.712 5.28-1.064 8-1.08 2.72.016 5.44.368 8 1.08 6.08-4.1386 8.76-3.28 8.76-3.28 1.72 4.408.64 7.6613.32 8.4693 2.04 2.24 3.28 5.0934 3.28 8.5868 0 12.2933-7.48 15-14.6 15.7866 1.12.96 2.16 2.9227 2.16 5.92 0 4.2827-.04 7.7227-.04 8.7627 0 .84.56 1.84 2.2 1.52C54.84 58.9116 64 46.9116 64 32.7916 64 15.1195 49.672.7915 32 .7915z"/></svg>

<svg width="64" height="64" viewBox="0 0 64 64" fill="none" xmlns="http://www.w3.org/2000/svg">
<path d="M32 0.791504C14.32 0.791504 0 15.1195 0 32.7916C0 46.9329 9.168 58.9249 21.88 63.1516C23.48 63.4529 24.0667 62.4636 24.0667 61.6129C24.0667 60.8529 24.04 58.8396 24.0267 56.1729C15.1253 58.1036 13.248 51.8796 13.248 51.8796C11.792 48.1862 9.688 47.1996 9.688 47.1996C6.78933 45.2156 9.912 45.2556 9.912 45.2556C13.1253 45.4796 14.8133 48.5516 14.8133 48.5516C17.6667 53.4449 22.304 52.0316 24.1333 51.2129C24.4213 49.1436 25.2453 47.7329 26.16 46.9329C19.0533 46.1329 11.584 43.3809 11.584 31.1196C11.584 27.6262 12.824 24.7728 14.8773 22.5328C14.5173 21.7248 13.4373 18.4715 15.1573 14.0635C15.1573 14.0635 17.8373 13.2049 23.9573 17.3435C26.5173 16.6315 29.2373 16.2795 31.9573 16.2635C34.6773 16.2795 37.3973 16.6315 39.9573 17.3435C46.0373 13.2049 48.7173 14.0635 48.7173 14.0635C50.4373 18.4715 49.3573 21.7248 49.0373 22.5328C51.0773 24.7728 52.3173 27.6262 52.3173 31.1196C52.3173 43.4129 44.8373 46.1196 37.7173 46.9062C38.8373 47.8662 39.8773 49.8289 39.8773 52.8262C39.8773 57.1089 39.8373 60.5489 39.8373 61.5889C39.8373 62.4289 40.3973 63.4289 42.0373 63.1089C54.84 58.9116 64 46.9116 64 32.7916C64 15.1195 49.672 0.791504 32 0.791504Z" fill="#333333"/>
</svg>
